X:15
T:The Rogue's March
S:Ashworth's Instructor, p. 33
M:2/4
%%MIDI program 72
%%MIDI transpose 8
L:1/8
K:G
BB (3(Bcd)|ee Te2|ddde|d2B2|BB (3(Bcd)|ee e2|(3(def) gB|A2G2::g2f2|e2d2|
g2f2|e2d2|BB (3(Bcd)|ee Te2|dd de|d2B2|BB (3(Bcd)|ee e2|(3(def) gB|A2G2:|]

